assets/Stadium/Flat/stadium_flat.svg

<svg width="32" height="32" viewBox="0 0 32 32" fill="none" xmlns="http://www.w3.org/2000/svg">
<path d="M4 11H3V14.7294C2.62984 15.0537 2.34087 15.4691 2.17 15.94C2.165 15.95 2.1625 15.96 2.16 15.97C2.15749 15.98 2.15499 15.99 2.14999 16C2.07999 16.2 2.04 16.41 2.02 16.63L2.01999 16.6301C2.01 16.7301 2 16.83 2 16.93V29H30V16.93C30 16.78 29.99 16.63 29.96 16.49C29.94 16.32 29.9 16.15 29.85 16C29.845 15.99 29.8425 15.98 29.84 15.97C29.8375 15.96 29.835 15.95 29.83 15.94C29.42 14.81 28.34 14 27.07 14H27V11H26V14H23V11H22V14H20V12H19V14H13V12H12V14H8V11H7V14H4.92999C4.60585 14 4.29296 14.0536 4 14.1525V11Z" fill="#9B9B9B"/>
<path d="M11.959 12H20.041C20.5704 12 21 11.57 21 11.04V6.96C21 6.43 20.5704 6 20.041 6H11.959C11.4296 6 11 6.43 11 6.96V11.04C11 11.57 11.4296 12 11.959 12ZM13 22.9933C13 21.337 14.34 20 16 20C17.66 20 19 21.337 19 22.9933V29H13V22.9933ZM4 24.9915C4 23.3362 5.34 22 7 22C8.65 22 10 23.3462 10 24.9915V29H4V24.9915ZM25 22C23.34 22 22 23.3381 22 24.9957V29H28V24.9957C28 23.3481 26.65 22 25 22Z" fill="#212121"/>
<path d="M30 16.94V17.01H2V16.94C2 16.84 2.01 16.74 2.02 16.64C2.04 16.42 2.07999 16.21 2.14999 16.01H29.85C29.9 16.16 29.94 16.33 29.96 16.5C29.99 16.64 30 16.79 30 16.94Z" fill="#F8312F"/>
<path d="M5.96997 3.52002C5.96997 3.79616 5.74611 4.02002 5.46997 4.02002C5.19383 4.02002 4.96997 3.79616 4.96997 3.52002C4.96997 3.24388 5.19383 3.02002 5.46997 3.02002C5.74611 3.02002 5.96997 3.24388 5.96997 3.52002ZM19.5051 8H18.495C18.2222 8 18 7.77551 18 7.5C18 7.22449 18.2222 7 18.495 7H19.5051C19.7778 7 20 7.22449 20 7.5C20 7.77551 19.7778 8 19.5051 8ZM3 10.4132V11.5551C3 11.8756 3.39933 12.086 3.76871 11.9658L5.71547 11.3447C6.09484 11.2245 6.09484 10.7938 5.71547 10.6736L3.70881 10.0225C3.36938 9.9324 3 10.1227 3 10.4132ZM7 10.4132V11.5551C7 11.8756 7.39934 12.086 7.76872 11.9658L9.71547 11.3447C10.0948 11.2245 10.0948 10.7938 9.71547 10.6736L7.70881 10.0225C7.36938 9.9324 7 10.1227 7 10.4132ZM22 11.5511V10.4067C22 10.113 22.3694 9.92062 22.7088 10.032L24.7155 10.6801C25.0948 10.8017 25.0948 11.227 24.7155 11.3485L22.7687 11.9663C22.3993 12.0878 22 11.865 22 11.5511ZM26 10.4117V11.5547C26 11.8755 26.3993 12.086 26.7687 11.9657L28.7155 11.3541C29.0948 11.2338 29.0948 10.8127 28.7155 10.6824L26.7088 10.0307C26.3694 9.92043 26 10.121 26 10.4117ZM19 10.5C19 10.7755 19.2245 11 19.5 11C19.7755 11 20 10.7755 20 10.5C20 10.2245 19.7755 10 19.5 10C19.2245 10 19 10.2245 19 10.5ZM23.49 9.02002C23.7661 9.02002 23.99 8.79616 23.99 8.52002C23.99 8.24388 23.7661 8.02002 23.49 8.02002C23.2138 8.02002 22.99 8.24388 22.99 8.52002C22.99 8.79616 23.2138 9.02002 23.49 9.02002ZM27.9399 3.53003C27.9399 3.80617 27.7161 4.03003 27.4399 4.03003C27.1638 4.03003 26.9399 3.80617 26.9399 3.53003C26.9399 3.25389 27.1638 3.03003 27.4399 3.03003C27.7161 3.03003 27.9399 3.25389 27.9399 3.53003Z" fill="#F8312F"/>
<path d="M11.47 5.02002C11.7461 5.02002 11.97 4.79616 11.97 4.52002C11.97 4.24388 11.7461 4.02002 11.47 4.02002C11.1938 4.02002 10.97 4.24388 10.97 4.52002C10.97 4.79616 11.1938 5.02002 11.47 5.02002ZM5.80997 8.83C5.60997 9.03 5.28997 9.03 5.08997 8.83L4.12998 7.87C3.92998 7.67 3.92998 7.35 4.12998 7.15C4.32998 6.95 4.64998 6.95 4.84998 7.15L5.80997 8.11C6.00997 8.31 6.00997 8.63 5.80997 8.83ZM22.07 5.87004C22.27 6.07004 22.59 6.07004 22.79 5.87004C22.99 5.67004 22.99 5.35004 22.79 5.15004L21.83 4.19004C21.63 3.99004 21.31 3.99004 21.11 4.19004C20.91 4.39004 20.91 4.71004 21.11 4.91004L22.07 5.87004Z" fill="#8D65C5"/>
<path d="M8.88001 4.83C8.68001 5.03 8.36001 5.03 8.16001 4.83C7.96001 4.63 7.96001 4.31 8.16001 4.11L9.12 3.15C9.32 2.95 9.64 2.95 9.84 3.15C10.04 3.35 10.04 3.67 9.84 3.87L8.88001 4.83ZM12 7.5C12 7.77551 12.2244 8 12.4998 8C12.7753 8 13.0099 7.77551 12.9997 7.5C12.9997 7.22449 12.7753 7 12.4998 7C12.2244 7 12 7.22449 12 7.5ZM12.4242 11H13.5755C13.8178 11 14.0097 10.8081 13.9996 10.5758V9.42424C13.9996 9.19192 13.8077 9 13.5755 9H12.4242C12.1919 9 12 9.19192 12 9.42424V10.5758C12 10.8081 12.1919 11 12.4242 11ZM28.47 9C28.7461 9 28.97 8.77614 28.97 8.5C28.97 8.22386 28.7461 8 28.47 8C28.1938 8 27.97 8.22386 27.97 8.5C27.97 8.77614 28.1938 9 28.47 9Z" fill="#FFB02E"/>
<path d="M25.8099 7.83C25.6099 8.03 25.2899 8.03 25.0899 7.83C24.8999 7.63 24.8999 7.31 25.0899 7.11L26.05 6.15C26.25 5.95 26.57 5.95 26.77 6.15C26.97 6.35 26.97 6.67 26.77 6.87L25.8099 7.83ZM15 7.5C15 7.77551 15.2244 8 15.4998 8C15.7855 8 16.0099 7.77551 15.9997 7.5C15.9997 7.22449 15.7753 7 15.4998 7C15.2244 7 15 7.22449 15 7.5ZM15.4242 11H16.5755C16.8178 11 17.0097 10.811 16.9996 10.5821V9.4479C16.9996 9.21906 16.8077 9.03003 16.5755 9.03003H15.4242C15.1919 9.03003 15 9.21906 15 9.4479V10.5821C15 10.811 15.1919 11 15.4242 11ZM7.48999 8.02002C7.76613 8.02002 7.98999 7.79616 7.98999 7.52002C7.98999 7.24388 7.76613 7.02002 7.48999 7.02002C7.21385 7.02002 6.98999 7.24388 6.98999 7.52002C6.98999 7.79616 7.21385 8.02002 7.48999 8.02002Z" fill="#00D26A"/>
</svg>

<svg xmlns="http://www.w3.org/2000/svg" width="32" height="32" fill="none"><path fill="#9B9B9B" d="M4 11H3v3.73c-.37.324-.66.74-.83 1.21-.005.01-.007.02-.01.03-.003.01-.005.02-.01.03-.07.2-.11.41-.13.63-.01.1-.02.2-.02.3V29h28V16.93c0-.15-.01-.3-.04-.44-.02-.17-.06-.34-.11-.49-.005-.01-.008-.02-.01-.03-.003-.01-.005-.02-.01-.03A2.94 2.94 0 0 0 27.07 14H27v-3h-1v3h-3v-3h-1v3h-2v-2h-1v2h-6v-2h-1v2H8v-3H7v3H4.93c-.324 0-.637.054-.93.152V11Z"/><path fill="#212121" d="M11.959 12h8.082a.96.96 0 0 0 .959-.96V6.96a.96.96 0 0 0-.959-.96h-8.082a.96.96 0 0 0-.959.96v4.08c0 .53.43.96.959.96ZM13 22.993A2.993 2.993 0 0 1 16 20c1.66 0 3 1.337 3 2.993V29h-6v-6.007Zm-9 1.998A2.992 2.992 0 0 1 7 22c1.65 0 3 1.346 3 2.991V29H4v-4.009ZM25 22c-1.66 0-3 1.338-3 2.996V29h6v-4.004A3.007 3.007 0 0 0 25 22Z"/><path fill="#F8312F" d="M30 16.94v.07H2v-.07c0-.1.01-.2.02-.3.02-.22.06-.43.13-.63h27.7c.05.15.09.32.11.49.03.14.04.29.04.44ZM5.97 3.52a.5.5 0 1 1-1 0 .5.5 0 0 1 1 0ZM19.505 8h-1.01A.498.498 0 0 1 18 7.5c0-.276.222-.5.495-.5h1.01c.273 0 .495.224.495.5s-.222.5-.495.5ZM3 10.413v1.142c0 .32.4.531.769.41l1.946-.62c.38-.12.38-.551 0-.671l-2.006-.651c-.34-.09-.709.1-.709.39Zm4 0v1.142c0 .32.4.531.769.41l1.946-.62c.38-.12.38-.551 0-.671l-2.006-.651c-.34-.09-.709.1-.709.39Zm15 1.138v-1.144c0-.294.37-.486.709-.375l2.006.648c.38.122.38.547 0 .668l-1.946.618c-.37.122-.769-.101-.769-.415Zm4-1.14v1.144c0 .32.4.531.769.41l1.947-.61c.379-.121.379-.542 0-.673l-2.007-.651c-.34-.11-.709.09-.709.38Zm-7 .089a.5.5 0 1 0 1.002-.002A.5.5 0 0 0 19 10.5Zm4.49-1.48a.5.5 0 1 0 0-1 .5.5 0 0 0 0 1Zm4.45-5.49a.5.5 0 1 1-1 0 .5.5 0 0 1 1 0Z"/><path fill="#8D65C5" d="M11.47 5.02a.5.5 0 1 0 0-1 .5.5 0 0 0 0 1ZM5.81 8.83c-.2.2-.52.2-.72 0l-.96-.96c-.2-.2-.2-.52 0-.72.2-.2.52-.2.72 0l.96.96c.2.2.2.52 0 .72Zm16.26-2.96c.2.2.52.2.72 0 .2-.2.2-.52 0-.72l-.96-.96c-.2-.2-.52-.2-.72 0-.2.2-.2.52 0 .72l.96.96Z"/><path fill="#FFB02E" d="M8.88 4.83c-.2.2-.52.2-.72 0-.2-.2-.2-.52 0-.72l.96-.96c.2-.2.52-.2.72 0 .2.2.2.52 0 .72l-.96.96ZM12 7.5a.5.5 0 0 0 .5.5c.275 0 .51-.224.5-.5a.5.5 0 0 0-1 0Zm.424 3.5h1.152a.414.414 0 0 0 .424-.424V9.424A.427.427 0 0 0 13.575 9h-1.15a.427.427 0 0 0-.425.424v1.152c0 .232.192.424.424.424ZM28.47 9a.5.5 0 1 0 0-1 .5.5 0 0 0 0 1Z"/><path fill="#00D26A" d="M25.81 7.83c-.2.2-.52.2-.72 0a.526.526 0 0 1 0-.72l.96-.96c.2-.2.52-.2.72 0 .2.2.2.52 0 .72l-.96.96ZM15 7.5a.5.5 0 0 0 .5.5c.286 0 .51-.224.5-.5a.5.5 0 0 0-1 0Zm.424 3.5h1.152c.242 0 .434-.189.424-.418V9.448a.424.424 0 0 0-.424-.418h-1.152a.424.424 0 0 0-.424.418v1.134c0 .229.192.418.424.418ZM7.49 8.02a.5.5 0 1 0 0-1 .5.5 0 0 0 0 1Z"/></svg>
